X:515
T:You're No Longer Mine
A:Straight Ahead
C:Sam Bush Solo
N:Transcribed by Philippe Colleu
R:bluegrass
L:1/8
Q:1/4=260
M:4/4
K:C
"(133 bpm)"z2 [e^c]B Ac [eB][eA] | "A"[e^c][ee] ee [e2e2] ea | ^fa ed ^cB AE | 
"D"^FA BA cB AF | "A"[A2E2] EE [AE]D E^F | AB ^cd ea ^gb | a^f ed ^cB Ac | "E"B^c ^de ^ge ^f/g/f | 
"A"e2 ee e2 a^c' | a^c' ac' ec' a/^g/e | ^ca ed cB Ac | "D"c^c =c^c AE ^FA | "A"E2 EE ED E^F | 
AB ^cd e2 ce | ea ed ^cB Ac | "E"d^f d^c BA ^GB | "A"A^c =c^c A^F EF | AE ^FA E^C B,C | 
A,2 A,A, A,A, A,A, | A,8 | 


